public/assets/images/theme-icon-heart.svg

<svg fill="none" height="73" viewBox="0 0 68 73" width="68" xmlns="http://www.w3.org/2000/svg"><path d="m25.5987 10.0125c4.7557-5.21972 11.1671-8.63818 18.1513-9.678088 6.9843-1.039908 14.1135.36246 20.1835 3.970268 4.2983 2.6086 4.4385 7.25732 3.4496 11.04952-1.682 6.432-3.8935 12.9496-7.1484 18.6885-7.3754 12.7764-16.643 24.3622-27.4876 34.3635-5.9259 5.5598-5.8402 5.1316-9.7804-2.1959-4.1581-7.7323-8.9081-15.1532-13.6192-22.5819-4.07254-6.3619-7.63114-12.8795-8.378676-20.5963-.521721-5.3574.840986-10.3721 5.100406-13.45571 5.00697-3.62868 10.83157-4.97581 16.67947-1.1291.8488.56066 1.7832.98115 2.85 1.56521zm4.493 17.3958c-6.3852-1.6586-6.3229-1.6664-7.0782-8.6434-.2429-1.0975-.8732-2.0706-1.7754-2.741-1.5671-1.1764-3.4806-1.7988-5.4399-1.7692s-3.8531.7095-5.3839 1.9327c-3.19262 2.4373-2.97458 5.8246-2.03237 9.173.5302 1.867 1.31635 3.6515 2.33607 5.3028 4.1037 6.5799 8.3787 13.0508 12.459 19.6152 1.9545 3.1147 3.6832 6.3774 5.6455 9.7959.5733-.4556 1.1193-.9444 1.6352-1.464 5.7312-6.502 11.9373-12.6614 16.8975-19.6696 4.6722-6.5721 8.2463-13.9463 11.7738-21.2348 1.8688-3.8935.2024-6.2295-4.0492-6.8447-3.2023-.4549-6.44-.6113-9.6713-.4672-7.0082.3504-12.1319 3.2861-13.6815 10.7303-.4127 2.0324-1.0279 3.9947-1.6353 6.284z" fill="#2b296a"/></svg>

<svg width="68" height="73" viewBox="0 0 68 73" fill="none" xmlns="http://www.w3.org/2000/svg">
<path d="M25.5987 10.0125C30.3544 4.79278 36.7658 1.37432 43.75 0.334412C50.7343 -0.705496 57.8635 0.696872 63.9335 4.30468C68.2318 6.91328 68.372 11.562 67.3831 15.3542C65.7011 21.7862 63.4896 28.3038 60.2347 34.0427C52.8593 46.8191 43.5917 58.4049 32.7471 68.4062C26.8212 73.966 26.9069 73.5378 22.9667 66.2103C18.8086 58.478 14.0586 51.0571 9.3475 43.6284C5.27496 37.2665 1.71636 30.7489 0.968824 23.0321C0.447103 17.6747 1.80981 12.66 6.06923 9.57639C11.0762 5.94771 16.9008 4.60058 22.7487 8.44729C23.5975 9.00795 24.5319 9.42844 25.5987 10.0125ZM30.0917 27.4083C23.7065 25.7497 23.7688 25.7419 23.0135 18.7649C22.7706 17.6674 22.1403 16.6943 21.2381 16.0239C19.671 14.8475 17.7575 14.2251 15.7982 14.2547C13.8389 14.2843 11.9451 14.9642 10.4143 16.1874C7.22168 18.6247 7.43972 22.012 8.38193 25.3604C8.91213 27.2274 9.69828 29.0119 10.718 30.6632C14.8217 37.2431 19.0967 43.714 23.177 50.2784C25.1315 53.3931 26.8602 56.6558 28.8225 60.0743C29.3958 59.6187 29.9418 59.1299 30.4577 58.6103C36.1889 52.1083 42.395 45.9489 47.3552 38.9407C52.0274 32.3686 55.6015 24.9944 59.129 17.7059C60.9978 13.8124 59.3314 11.4764 55.0798 10.8612C51.8775 10.4063 48.6398 10.2499 45.4085 10.394C38.4003 10.7444 33.2766 13.6801 31.727 21.1243C31.3143 23.1567 30.6991 25.119 30.0917 27.4083Z" fill="#2B296A"/>
</svg>
